src/status/24/indicator-notification-unread-dnd.svg

<svg width="24" height="24" viewBox="0 0 24 24" xmlns="http://www.w3.org/2000/svg">
 <path d="m12 0c-3.636719-0.0117188-6.4375 2.21875-7.726562 5.046875-0.863282 1.972656-1.277344 2.625-1.273438 6.46875v3.484375l-3 4.5h24l-3-4.5v-3.484375c0-3.84375-0.636719-5.050781-1.273438-6.34375-1.464843-2.886719-4.160156-5.1835938-7.726562-5.171875zm-0.003906 3.554688c1.605468 0 2.886718 1.316406 2.886718 2.925781v1.398437c0.796876 0 1.441407 0.648438 1.441407 1.441406v4.328126c0 0.800781-0.644531 1.441406-1.441407 1.441406h-5.765624c-0.796876 0-1.441407-0.644532-1.441407-1.441406v-4.328126c0-0.796874 0.644531-1.441406 1.441407-1.441406v-1.398437c0-1.609375 1.285156-2.925781 2.878906-2.925781zm0 1.445312c-0.796875 0-1.441406 0.636719-1.441406 1.441406v1.4375h2.886718v-1.4375c0-0.804687-0.640625-1.441406-1.445312-1.441406z" fill="rgb(53.333336%, 75.294119%, 81.568629%)"/>
 <path d="m7.761719 21c0.632812 1.796875 2.332031 3 4.238281 3 1.90625-0.003906 3.601562-1.203125 4.234375-3z" fill="rgb(53.333336%, 75.294119%, 81.568629%)"/>
</svg>

<svg xmlns="http://www.w3.org/2000/svg" xmlns:xlink="http://www.w3.org/1999/xlink" width="24" height="24" viewBox="0 0 24 24">
<path fill-rule="nonzero" fill="rgb(53.333336%, 75.294119%, 81.568629%)" fill-opacity="1" d="M 12 0 C 8.363281 -0.0117188 5.5625 2.21875 4.273438 5.046875 C 3.410156 7.019531 2.996094 7.671875 3 11.515625 L 3 15 L 0 19.5 L 24 19.5 L 21 15 L 21 11.515625 C 21 7.671875 20.363281 6.464844 19.726562 5.171875 C 18.261719 2.285156 15.566406 -0.0117188 12 0 Z M 11.996094 3.554688 C 13.601562 3.554688 14.882812 4.871094 14.882812 6.480469 L 14.882812 7.878906 C 15.679688 7.878906 16.324219 8.527344 16.324219 9.320312 L 16.324219 13.648438 C 16.324219 14.449219 15.679688 15.089844 14.882812 15.089844 L 9.117188 15.089844 C 8.320312 15.089844 7.675781 14.445312 7.675781 13.648438 L 7.675781 9.320312 C 7.675781 8.523438 8.320312 7.878906 9.117188 7.878906 L 9.117188 6.480469 C 9.117188 4.871094 10.402344 3.554688 11.996094 3.554688 Z M 11.996094 5 C 11.199219 5 10.554688 5.636719 10.554688 6.441406 L 10.554688 7.878906 L 13.441406 7.878906 L 13.441406 6.441406 C 13.441406 5.636719 12.800781 5 11.996094 5 Z M 11.996094 5 "/>
<path fill-rule="nonzero" fill="rgb(53.333336%, 75.294119%, 81.568629%)" fill-opacity="1" d="M 7.761719 21 C 8.394531 22.796875 10.09375 24 12 24 C 13.90625 23.996094 15.601562 22.796875 16.234375 21 Z M 7.761719 21 "/>
</svg>
